X:1     %Music
T:Hampshire Mummers' Christmas Carol
B:Broadwood, L, 1908, English Traditional Songs and Carols, London, Boosey
N:Reprinted by EP Publishing Limited, Rowman & Littlefield, Totowa, New Jersey, 1974
S: Mr. Godfrey Arkwright
Z:Lucy Broadwood
F:http://www.folkinfo.org/songs
M:4/4     %Meter
L:1/8     %
K:C
C E |G2 G2 F2 A2 |G2 (ED) C2     
w:There is six good days all in the_ week,    
E2 | D2 (DE) F2 E D | E6 ||
w:All for a_ la-bour-ing man,
C2 E2 |G G G A F F D E | (FE) F A G2
w:But the sev-enth is the Sab-bath of our Lord_ Je-sus Christ,
(CE) |G2 A F E2 D2 |HC6 |]
w:The_ Fa-ther_ and the Son